app/assets/images/heroicons/micro/arrow-turn-down-left.svg

<svg width="16" height="16" viewBox="0 0 16 16" fill="none" xmlns="http://www.w3.org/2000/svg">
<path fill-rule="evenodd" clip-rule="evenodd" d="M13.25 2C12.8358 2 12.5 2.33579 12.5 2.75V9.25H4.56066L5.53033 8.28033C5.82322 7.98744 5.82322 7.51256 5.53033 7.21967C5.23744 6.92678 4.76256 6.92678 4.46967 7.21967L2.21967 9.46967C1.92678 9.76256 1.92678 10.2374 2.21967 10.5303L4.46967 12.7803C4.76256 13.0732 5.23744 13.0732 5.53033 12.7803C5.82322 12.4874 5.82322 12.0126 5.53033 11.7197L4.56066 10.75H13.25C13.6642 10.75 14 10.4142 14 10V2.75C14 2.33579 13.6642 2 13.25 2Z" fill="black"/>
</svg>

<svg xmlns="http://www.w3.org/2000/svg" viewBox="0 0 16 16" fill="currentColor" aria-hidden="true" data-slot="icon">
  <path fill-rule="evenodd" d="M13.25 2a.75.75 0 0 0-.75.75v6.5H4.56l.97-.97a.75.75 0 0 0-1.06-1.06L2.22 9.47a.75.75 0 0 0 0 1.06l2.25 2.25a.75.75 0 0 0 1.06-1.06l-.97-.97h8.69A.75.75 0 0 0 14 10V2.75a.75.75 0 0 0-.75-.75Z" clip-rule="evenodd"/>
</svg>
